X: 200
T: Trop plus secret
N: Derived from Rue3024-Trop_plus_secret.krn
C: Pierre de la Rue
%%abc-version 2.0
%%abcx-abcm2ps-target-version 5.9.1 (29 Sep 2008)
%%abc-creator hum2abc beta
%%abcx-conversion-date 2019/02/17 08:01:18
%%abc-edited-by Jesse Rodin
%%abc-edited-by Chris Gage 06-17-2013
%%abcx-initial-encoding-date 2013/08/08/
%%humdrum-veritas 4148514015
%%humdrum-veritas-data 1982965700
%%linebreak <none>
%%barnumbers 0
L: 1/4
M: 2/1
Q: 1/2=120
%%staves [1 2 3 4]
V: 1 clef=treble
V: 2 clef=treble-8
V: 3 clef=treble-8
V: 4 clef=bass
K: C
[V:1] z8 | 
[V:2] d4f4- | 
[V:3] z8 | 
[V:4] z8 | 
[V:1] z8 | 
[V:2] f2ede2d2- | 
[V:3] z8 | 
[V:4] z8 | 
[V:1] A4c4- | 
[V:2] d2cBA4- | 
[V:3] z8 | 
[V:4] z8 | 
[V:1] c2BAB2A2- | 
[V:2] A4d4- | 
[V:3] z8 | 
[V:4] z8 | 
[V:1] A2GFE4 | 
[V:2] d2d2c2B2 | 
[V:3] z8 | 
[V:4] z8 | 
[V:1] z4A4- | 
[V:2] A2G2F4 | 
[V:3] z8 | 
[V:4] D,4D,2F,2- | 
[V:1] A2A2G2F2- | 
[V:2] z2F2G2A2 | 
[V:3] z8 | 
[V:4] F,2E,D,E,2D,2- | 
[V:1] F2EDC4 | 
[V:2] D4E4- | 
[V:3] A4c4- | 
[V:4] D,2C,B,,A,,4- | 
[V:1] z2C2D3E | 
[V:2] E4D4 | 
[V:3] c2BAB2A2- | 
[V:4] A,,4D,4- | 
[V:1] F2G2A2B2 | 
[V:2] z8 | 
[V:3] A2GFE4- | 
[V:4] D,2D,2C,2B,,2 | 
[V:1] c6BA | 
[V:2] z4F4- | 
[V:3] E4A4- | 
[V:4] A,,2G,,2F,,4- | 
[V:1] c4B2A2 | 
[V:2] F2F2G2A2 | 
[V:3] A2A2G2F2 | 
[V:4] F,,4z2F,,2 | 
[V:1] BAGFE2A2- | 
[V:2] G4z2E2 | 
[V:3] E2D2C4 | 
[V:4] G,,4A,,3G,, | 
[V:1] A2GFEDF2- | 
[V:2] F2G4F2- | 
[V:3] c4B2A2 | 
[V:4] F,,2E,,2G,,2D,,2- | 
[V:1] FED4^C2 | 
[V:2] FGA2B2A2 | 
[V:3] BAGFE4 | 
[V:4] D,,E,,F,,2G,,2A,,2 | 
[V:1] D8 | 
[V:2] F3GA4 | 
[V:3] D4z4 | 
[V:4] D,,4z2D,2 | 
[V:1] z8 | 
[V:2] z8 | 
[V:3] A4c4- | 
[V:4] F,6F,2 | 
[V:1] z8 | 
[V:2] z8 | 
[V:3] c2c2B2G2 | 
[V:4] E,2C,2D,2B,,2 | 
[V:1] z8 | 
[V:2] z4e4 | 
[V:3] A2F2E4 | 
[V:4] A,,8 | 
[V:1] A4c4- | 
[V:2] f6f2 | 
[V:3] z8 | 
[V:4] z8 | 
[V:1] c2c2B2G2 | 
[V:2] e2c2d2B2 | 
[V:3] z8 | 
[V:4] z8 | 
[V:1] A2F2E4 | 
[V:2] A6GF | 
[V:3] A4c4- | 
[V:4] z8 | 
[V:1] z8 | 
[V:2] E4z4 | 
[V:3] c2c2B2G2 | 
[V:4] z2C,2D,2B,,2 | 
[V:1] z4z2E2 | 
[V:2] z4z2c2 | 
[V:3] A2F2E4 | 
[V:4] A,,8 | 
[V:1] F2D2C4 | 
[V:2] d2B2A4 | 
[V:3] z8 | 
[V:4] z2G,,2A,,2F,,2 | 
[V:1] G4G2G2 | 
[V:2] z2B4c2- | 
[V:3] E4E2E2 | 
[V:4] E,,8 | 
[V:1] G4G4 | 
[V:2] c2BAB4 | 
[V:3] E4G4 | 
[V:4] z4E,,4 | 
[V:1] A4F4 | 
[V:2] A4z2A2 | 
[V:3] F4A4- | 
[V:4] F,,4D,,4 | 
[V:1] E4z2E2 | 
[V:2] c6BA | 
[V:3] A2G2E4 | 
[V:4] A,,6G,,F,, | 
[V:1] G2G2G2G2- | 
[V:2] G2G2B4- | 
[V:3] z2E2G2G2 | 
[V:4] E,,8 | 
[V:1] G2FEG4 | 
[V:2] B2B2d4 | 
[V:3] G4G4 | 
[V:4] z8 | 
[V:1] F2E4D2 | 
[V:2] c2B4A2 | 
[V:3] A3GF4 | 
[V:4] z8 | 
[V:1] E2G3Ac2 | 
[V:2] B2e4e2 | 
[V:3] E8 | 
[V:4] E,,4G,,2A,,2 | 
[V:1] B2A4^G2 | 
[V:2] dcBAB4 | 
[V:3] z8 | 
[V:4] B,,2C,2D,2E,2 | 
[V:1] A8 | 
[V:2] A2c3df2 | 
[V:3] z2A,2C3D | 
[V:4] A,,8 | 
[V:1] GFEDE4 | 
[V:2] e2d4^c2 | 
[V:3] E2F2G2A2 | 
[V:4] z8 | 
[V:1] D4z2D2- | 
[V:2] d4z2f2- | 
[V:3] D8 | 
[V:4] z8 | 
[V:1] D2CB,C2D2 | 
[V:2] f2ede2d2- | 
[V:3] z8 | 
[V:4] z8 | 
[V:1] A4c4- | 
[V:2] d2cBA4- | 
[V:3] z8 | 
[V:4] z8 | 
[V:1] c2BAB2A2- | 
[V:2] A4d4- | 
[V:3] z8 | 
[V:4] z8 | 
[V:1] A2GFE4 | 
[V:2] d2d2c2B2 | 
[V:3] z8 | 
[V:4] z8 | 
[V:1] z4A4- | 
[V:2] A2G2F4 | 
[V:3] z8 | 
[V:4] D,4D,2F,2- | 
[V:1] A2A2G2F2- | 
[V:2] z2F2G2A2 | 
[V:3] z8 | 
[V:4] F,2E,D,E,2D,2- | 
[V:1] F2EDC4 | 
[V:2] D4E4- | 
[V:3] A4c4- | 
[V:4] D,2C,B,,A,,4- | 
[V:1] z2C2D3E | 
[V:2] E4D4 | 
[V:3] c2BAB2A2- | 
[V:4] A,,4D,4- | 
[V:1] FGA4B2 | 
[V:2] z8 | 
[V:3] A2GFE4- | 
[V:4] D,2D,2C,2B,,2 | 
[V:1] c6BA | 
[V:2] z4F4- | 
[V:3] E4A4- | 
[V:4] A,,2G,,2F,,4 | 
[V:1] c4B2A2 | 
[V:2] F2F2G2A2 | 
[V:3] A2A2G2F2 | 
[V:4] F,,4z2F,,2 | 
[V:1] BAGFE2A2- | 
[V:2] G4z2E2 | 
[V:3] E2D2C4 | 
[V:4] G,,4A,,3G,, | 
[V:1] A2GFEDF2- | 
[V:2] F2G4F2- | 
[V:3] c4B2A2 | 
[V:4] F,,2E,,2G,,2D,,2- | 
[V:1] FED4^C2 | 
[V:2] FGA2B2A2- | 
[V:3] BAGFE4 | 
[V:4] D,,E,,F,,2G,,2A,,2 | 
[V:1] D2A2A2BA | 
[V:2] A2f2f2d2- | 
[V:3] D8 | 
[V:4] D,,2D,2D,2G,,2- | 
[V:1] GFEDECD2 | 
[V:2] d2c3BB2 | 
[V:3] z2A2A2BA | 
[V:4] G,,2A,,4G,,2 | 
[V:1] E2D4^C2 | 
[V:2] cBAGA4 | 
[V:3] GFEDE4 | 
[V:4] C,2D,2A,,4 | 
[V:1] D8 |]  
[V:2] A8 |]  
[V:3] D8 |]  
[V:4] D,,8 |]  
